X:63
T:Cheshire Quick March. JJo.060, The
B:J.Jones MS,1801,N.Shrops.
N:cf JJ115 Cheshire Quick Step
A:N Shropshire
Z:Neil Brookes 2006
M:2/4
L:1/8
Q:1/4=120
K:C
g|e/d/e/f/ ee|g2fe|dcde|c/B/c/d/ cg|e/d/e/f/ ee|g2fe|dcde|[c3C3]:|
|:e|d/c/d/e/ de|f2eg|fedc|d/c/B/A/ Ge|d/c/d/e/ de|f2eg|fedc|[g3e3]g|
e/d/e/f/ ee|g2fe|dcde|c/B/c/d/ cg|e/d/e/f/ ee|g2fe|dcde|[c3C3]:|

